!!!COM: Hummel, Johann Nepomuk
!!!CDT: 1778/11/14/-1837/10/17/
!!!OTL: Prelude in E-flat Minor, Op. 67, No. 14
!!!OPS: Op. 67
!!!ONM: No. 14
!!!OMD: Alla cappella
!!!ODT: 1815///
!!!AIN: piano
**kern	**kern	**dynam
*staff2	*staff1	*staff1/2
*Ipiano	*Ipiano	*Ipiano
*clefF4	*clefG2	*clefG2
*k[b-e-a-d-g-c-]	*k[b-e-a-d-g-c-]	*k[b-e-a-d-g-c-]
*e-:	*e-:	*e-:
*M2/2	*M2/2	*M2/2
*MM120	*MM120	*MM120
=1-	=1-	=1-
*	*^	*
2.EE-/ 2.E-/	4r	4r	.
.	4g-/	4G-\ 4B-\	f
.	[2f/	2A-\ 2c-\	.
4DDn/ (4Dn/	.	.	.
=2	=2	=2	=2
&(2.GG-/&) 2.G-/)	4f/]	2B-\	.
.	4e-/	.	.
.	2e-/ [2a-/	4cn\	.
4FF/ (4F/	.	4c-\	.
=3	=3	=3	=3
&(2.BB-\&) 2.B-\)	4a-/]	4dn\	.
.	4gn/	4d-\ [4e-\	.
.	2cc-/	4c-\ 4e-\]	.
[4AA-\ ([4A-\	.	4f-\ 4a-\	.
=4	=4	=4	=4
4AA-\] 4A-\]	2b-/	4dn\ 4fn\	.
4GG-/ 4G-/)	.	2e-\ 2g-\	.
(4CCn/ 4Cn/	4an/	.	.
4DDn/ 4Dn/	4a-/	4c-\ 4f\	.
=5	=5	=5	=5
4EE-/ 4E-/	[4e-/ 4gn/	4B-\	.
4AAAn/ 4AAn/	4e-/_ 4g-/	4cn\	.
2BBB-/ 2BB-/	4e-/] [4f/	[2A-\	.
.	[4c-/ [4dn/ 4f/_	.	.
*	*v	*v	*
=6	=6	=6
2..EE-/) 2..E-/	2A-/] 2c-/] 2d/] 2f/]	p
.	2G-/ 2B-/ 2e-/	.
(16BB-/LL	.	.
16GG-/JJ	.	.
=7	=7	=7
1EE-)	1r	.
==	==	==
*-	*-	*-
!!!ENC: Craig Stuart Sapp
!!!EED: 2008/06/13/
!!!EEV: 2008/06/13/
!!!YEC: Copyright 2008 by Craig Stuart Sapp
!!!YEN: United States of America
